outputs/icons/charts/table_round.svg

<svg xmlns="http://www.w3.org/2000/svg" width="1200" height="1200" fill="none"><path fill="#000" d="M1000 150H250c-55 0-100 45-100 100v700c0 55 45 100 100 100h750c55 0 100-45 100-100V250c0-55-45-100-100-100m0 100v150H250V250zM750 950H500V500h250zM250 500h150v450H250zm600 450V500h150v450z"/></svg>

<svg width="1200" height="1200" viewBox="0 0 1200 1200" fill="none" xmlns="http://www.w3.org/2000/svg"><path d="M1000 150H250C195 150 150 195 150 250V950C150 1005 195 1050 250 1050H1000C1055 1050 1100 1005 1100 950V250C1100 195 1055 150 1000 150ZM1000 250V400H250V250H1000ZM750 950H500V500H750V950ZM250 500H400V950H250V500ZM850 950V500H1000V950H850Z" fill="black"/></svg>
